src/topics/icons/keystonejs.svg

<svg height="260" preserveAspectRatio="xMidYMid" viewBox="0 0 256 260" width="256" xmlns="http://www.w3.org/2000/svg" xmlns:xlink="http://www.w3.org/1999/xlink"><linearGradient id="a" x1="0%" x2="100%" y1="50%" y2="50%"><stop offset="0" stop-color="#40afd7"/><stop offset="1" stop-color="#3e8cd7"/></linearGradient><path d="m244.736 0h-233.472c-6.144 0-11.264 5.12-11.264 11.52v236.8c0 6.4 5.12 11.52 11.264 11.52h233.472c6.144 0 11.264-5.12 11.264-11.52v-236.8c0-6.4-5.12-11.52-11.264-11.52zm-81.408 222.208-54.784-74.24-14.08 17.152v57.088h-37.376v-184.32h37.12v82.432l64-82.432h47.36l-71.68 86.272 76.8 98.048z" fill="url(#a)"/></svg>

<?xml version="1.0" encoding="UTF-8" standalone="no"?>
<svg width="256px" height="260px" viewBox="0 0 256 260" version="1.1" xmlns="http://www.w3.org/2000/svg" xmlns:xlink="http://www.w3.org/1999/xlink" preserveAspectRatio="xMidYMid">
    <defs>
        <linearGradient x1="0%" y1="50%" x2="100%" y2="50%" id="linearGradient-1">
            <stop stop-color="#40AFD7" offset="0%"></stop>
            <stop stop-color="#3E8CD7" offset="100%"></stop>
        </linearGradient>
    </defs>
    <g>
        <path d="M244.736,0 L11.264,0 C5.12,0 0,5.12 0,11.52 L0,248.32 C0,254.72 5.12,259.84 11.264,259.84 L244.736,259.84 C250.88,259.84 256,254.72 256,248.32 L256,11.52 C256,5.12 250.88,0 244.736,0 L244.736,0 Z M163.328,222.208 L108.544,147.968 L94.464,165.12 L94.464,222.208 L57.088,222.208 L57.088,37.888 L94.208,37.888 L94.208,120.32 L158.208,37.888 L205.568,37.888 L133.888,124.16 L210.688,222.208 L163.328,222.208 L163.328,222.208 Z" fill="url(#linearGradient-1)"></path>
    </g>
</svg>
